X: 233
T: Madame Corde's frolic
%%VWML:Prestons1794-3056d-p98-0
F:http://www.vwml.org/record/Prestons1794/3056d/p98
Z: 2014 John Chambers <jc:trillian.mit.edu>
B: Preston "Twenty four Country Dances for the Year 1794" p.97 #1
F: http://www.vwml.org/browse/browse-collections-dance-tune-books/browse-prestons1794# 2014-8-10
M: 6/8
L: 1/8
K: Bb
|:\
BFB TB3 | cFc Tc3 | d2B e2c | fdB AGF |\
BFB TB3 | cFc Tc3 | dfe dcB | F2A B3 :|
|:\
b3 f3 | d3 B3 | c2e d2B | AcB AGF |\
b3 f3 | d3 B3 | c2e d2B | F2A B3 :|
% - - - - - - - - - - - - - - - - - - - - - - - - -
%%begintext align
%% The 1st Lady set to the 2d Gent.n & turn her
%% own Part.r .| The 1st Gent.n set to the 2d Lady
%% & turn his Part.r :| Cross over 1 Cu: and
%% turn :|. Right & Left :|:
%%endtext
% - - - - - - - - - - - - - - - - - - - - - - - - -
T: Camley Garden
%R: reel
Z: 2014 John Chambers <jc:trillian.mit.edu>
B: Preston "Twenty four Country Dances for the Year 1794" p.97 #2
F: http://www.vwml.org/browse/browse-collections-dance-tune-books/browse-prestons1794# 2014-8-10
M: C|
L: 1/8
K: Amix
e |\
cA c/d/e a2eg | fdg2 BG2B |\
cA c/d/e a2eg | dgBd eA A :|\
|: e |\
c/B/A eA ce2a | gdBG Bd2e |
c/B/A eA ce2g | dgBd eA2e |\
c/B/A eA ce2a | gdBG Bd2e |\
c/B/A ae fdgd | BGBd eA A :|
% - - - - - - - - - - - - - - - - - - - - - - - - -
%%begintext align
%% Foot it & right hands across .|
%% Foot it & left hands back again :|
%% Lead down the middle up again :|.
%% Allemande :|:
%%endtext
% - - - - - - - - - - - - - - - - - - - - - - - - -
